img/wave2_mob.svg

<svg width="350" height="375" viewBox="0 0 350 375" fill="none" xmlns="http://www.w3.org/2000/svg">
<path d="M287.771 244.875C292.661 143.044 384.451 44.7041 452.743 61.9224C486.855 48.8073 562.455 21.2585 591.963 15.9844C628.847 9.39161 651.144 -4.99382 665.24 2.88678C679.336 10.7674 653.685 114.281 597.32 105.584C540.955 96.8879 407.108 124.616 362.535 345.153C326.876 521.582 132.709 558.046 40.0827 554.224C10.9141 497.037 -30.3661 383.824 37.8615 388.472C123.146 394.282 282.88 346.707 287.771 244.875Z" fill="#9A9FFF" fill-opacity="0.05"/>
</svg>

<svg width="350" height="375" fill="none" xmlns="http://www.w3.org/2000/svg"><path d="M287.771 244.875c4.89-101.831 96.68-200.17 164.972-182.953 34.112-13.115 109.712-40.663 139.22-45.938 36.884-6.592 59.181-20.978 73.277-13.097 14.096 7.88-11.555 111.394-67.92 102.697-56.365-8.696-190.212 19.032-234.785 239.569-35.659 176.429-229.826 212.893-322.452 209.071-29.169-57.187-70.45-170.4-2.221-165.752 85.284 5.81 245.018-41.765 249.909-143.597Z" fill="#9A9FFF" fill-opacity=".05"/></svg>
